X:90
T:Lord Reay
T:Mac Aoidh
R:Slow Air
S:Simon Fraser Collection
N:No.23
O:Scottish
M:C
L:1/8
Q:1/4=100
K:D Minor
A|f2 e>d d>A a2|c>gg>f ec c>e|f2 e>d dA a2|eba^c (d2 d)>A|f2 e>d d>A a2|
c>gg>f ecc>e|f>ed>c B/A/d/c/ B/A/G/F/|EBA>^C D2 D||E|F>GA>G F>G A<f|
B>AG>F EA/D/ ^CB,/A,/|F>GA>=B c>_BAf|eba>^c d3 z/E/|F>GA>G F>GA>a|
b>ag>f ea/d/ ^cB/A/|f>ed>c B/A/d/c/ B/A/G/F/|G/F/E/D/ A^C D2 D||

